X:1
T:Lashburn, LMD
T:Lashburn, LMD
T:Robert Edward William Cottrill, 2017
T:Public Domain Courtesy of the Cyber Hymnal™
C:Robert Edward William Cottrill, 2017
Z:Public Domain
Z:Courtesy of the Cyber Hymnal™
%%score ( 1 2 ) ( 3 4 )
L:1/8
Q:1/4=100
M:4/4
K:C
V:1 treble 
V:2 treble 
V:3 bass 
V:4 bass 
V:1
 G2 | G2 AB [Fc]2 BA | [EG]6 G2 | G2 DE F2 GF | [CE]6 G2 | G2 AB [Fc]2 BA | [EG]6 G2 | %7
 A2 dc B2 AB | [Ec]6 ([Ec][EB]) | [FA]2 [FA][FA] A2 cA | [EG]6 G2 | [Ec]2 [Ec][Ec] [Ec]2 Bc | %12
 [Fd]6 (ed) | [Gc]2 cB [FA]2 cA | [EG]6 G2 | [FA]2 dc [FB]2 AB | [Ec]6 |] %17
V:2
 x2 | E4 F2 x2 | x8 | B,4 B,4 | x8 | E4 F2 x2 | x8 | F4 F4 | x8 | x8 | x8 | x8 | x8 | x8 | x8 | %15
 x6 F2 | x6 |] %17
V:3
 z2 | [C,G,]4 A,2 DC | [C,G,]6 z2 | [G,,F,]8 | [C,G,]6 G,2 | [C,G,]6 [C,D][C,C] | [C,G,]6 z2 | %7
 [C,A,]2 [C,D][C,C] [A,D]2 [G,C][G,D] | [C,C]8 | [C,A,]2 [C,B,][C,C] [C,A,]2 z2 | [C,C]6 z2 | %11
 [A,,A,]6 z2 | [G,,G,]6 z2 | [E,C]4 [F,C]2 z2 | [C,G,]6 z2 | [C,A,]4 [G,,G,]4 | [C,G,]6 |] %17
V:4
 x2 | x4 C,4 | x8 | x8 | x8 | x8 | x8 | x8 | x8 | x8 | x8 | x8 | x8 | x8 | x8 | x8 | x6 |] %17

